source/img/icon-phone.svg

<svg width="17" height="24" viewBox="0 0 17 24" fill="none" xmlns="http://www.w3.org/2000/svg">
<path d="M1.45641 6.62432C1.37185 5.42623 1.63759 4.24606 2.3412 3.29684C2.9512 2.43632 3.74541 1.96636 4.70269 1.69172C5.50898 1.4525 6.03745 1.74561 6.26998 2.64204C6.60217 3.98224 7.07628 5.3225 7.24841 6.73361C7.30277 7.35485 6.90114 8.23322 6.46629 8.6856C5.37614 9.75888 5.60263 10.5399 6.43006 12.1643C6.68675 12.6881 7.09442 13.5934 7.88864 14.7919C8.71607 15.9992 9.15395 16.6472 10.2169 16.0975C11.3977 15.5035 12.2583 15.8855 13.1492 16.8444C13.7531 17.5369 14.4175 18.1318 15.0215 18.8243C15.8942 19.8542 15.8549 20.5641 15.1725 21.2915C13.9434 22.6309 11.9141 23.0736 10.4042 22.1766C9.5707 21.6881 8.74024 21.0487 8.0789 20.303C5.16477 16.9825 3.06297 13.1212 1.79765 8.76321C1.59532 8.02654 1.50171 7.28104 1.45641 6.62432Z" stroke="#0AD9C6" stroke-width="2" stroke-miterlimit="10"/>
</svg>

<svg viewBox="0 0 17 24" xmlns="http://www.w3.org/2000/svg"><path d="M1.456 6.624c-.084-1.198.182-2.378.885-3.327.61-.86 1.404-1.33 2.362-1.605.806-.24 1.334.054 1.567.95.332 1.34.806 2.68.978 4.092.055.62-.347 1.5-.782 1.952-1.09 1.073-.863 1.854-.036 3.478.257.524.664 1.43 1.459 2.628.827 1.207 1.265 1.855 2.328 1.306 1.18-.594 2.041-.212 2.932.746.604.693 1.269 1.288 1.873 1.98.872 1.03.833 1.74.15 2.467-1.229 1.34-3.258 1.783-4.768.886-.833-.489-1.664-1.128-2.325-1.874-2.914-3.32-5.016-7.182-6.281-11.54a10.989 10.989 0 01-.342-2.139z" stroke="#0AD9C6" stroke-width="2" stroke-miterlimit="10"/></svg>
